cps (100/60/4)
import Sound.Tidal.MIDI.Context
displayOutputDevices >>= putStrLn
devices <- midiDevices
m1 <- midiStream devices "IAC Driver Tidal1" 1 synthController
m2 <- midiStream devices "IAC Driver Tidal2" 1 synthController
m3 <- midiStream devices "IAC Driver Tidal3" 1 synthController
m4 <- midiStream devices "IAC Driver TidalClock" 1 synthController

m1 $ note "-20 ~ -23 ~"
m2 $ note "-24 ~ -22 ~"
